X:32
T:The Mug of Brown Ale
R:jig
M:6/8
L:1/8
K:G
gf | "Am" eAA fAA | "(C)" gfg age | "G" dBA ~G3 | BAB     dBd |
     "Am" eAA fAA | "(C)" gfg age | "G" dBd gdB | "Am" ABA A2 :|
 e | "Am" efg aba | aba       age | "G" dBd ~g3 | gba     ged |
     "Am" efg aba | aba       age | "G" dBd gdB | "Am" ABA A2 :|
